src/_assets/wallet-icons/poly-wallet.svg

<svg viewBox="0 0 80 80" fill="none" xmlns="http://www.w3.org/2000/svg">
<path d="M0 40C0 17.9086 17.9086 0 40 0V0C62.0914 0 80 17.9086 80 40V40C80 62.0914 62.0914 80 40 80V80C17.9086 80 0 62.0914 0 40V40Z" fill="url(#paint0_linear_626_3027)"/>
<path d="M56.1861 18.1776C52.3931 15.7605 47.6719 15 41.0167 15H27.5V18.8661H40.7402C46.7501 18.8661 50.4702 19.4189 53.4707 21.2852C54.9346 22.1593 56.131 23.3942 56.9358 24.8628C57.7406 26.3313 58.1252 27.9804 58.0499 29.6401C58.1071 31.2306 57.7508 32.8095 57.0135 34.233C56.2762 35.6564 55.1812 36.8791 53.8287 37.7895C51.2518 39.516 48.1018 40.4163 40.7332 40.4163H27.5V65H31.8659V44.1446H40.2375C47.323 44.1446 52.5447 43.454 56.4101 40.8971C58.3387 39.6486 59.9081 37.949 60.9721 35.9569C62.0361 33.9647 62.5598 31.7448 62.4946 29.5045C62.5519 27.2505 62.0005 25.0209 60.8944 23.0349C59.7883 21.049 58.1656 19.375 56.1861 18.1776V18.1776Z" fill="white"/>
<defs>
<linearGradient id="paint0_linear_626_3027" x1="56" y1="-1.76765e-06" x2="37.25" y2="80" gradientUnits="userSpaceOnUse">
<stop stop-color="#FF2E72"/>
<stop offset="1" stop-color="#4A125E"/>
</linearGradient>
</defs>
</svg>

<svg xmlns="http://www.w3.org/2000/svg" fill="none" viewBox="0 0 80 80"><path fill="url(#a)" d="M0 40C0 17.909 17.909 0 40 0s40 17.909 40 40-17.909 40-40 40S0 62.091 0 40"/><path fill="#fff" d="M56.186 18.178C52.393 15.76 47.672 15 41.016 15H27.5v3.866h13.24c6.01 0 9.73.553 12.73 2.42a9.5 9.5 0 0 1 3.466 3.577 9.1 9.1 0 0 1 1.114 4.777c.057 1.59-.3 3.17-1.036 4.593a9.64 9.64 0 0 1-3.185 3.557c-2.577 1.726-5.727 2.626-13.096 2.626H27.5V65h4.366V44.145h8.371c7.086 0 12.308-.691 16.173-3.248a13.44 13.44 0 0 0 4.562-4.94 12.9 12.9 0 0 0 1.523-6.453 12.6 12.6 0 0 0-1.6-6.47 13.2 13.2 0 0 0-4.709-4.856"/><defs><linearGradient id="a" x1="56" x2="37.25" y1="0" y2="80" gradientUnits="userSpaceOnUse"><stop stop-color="#FF2E72"/><stop offset="1" stop-color="#4A125E"/></linearGradient></defs></svg>
